X: 22009
T: Kitty's Rambles
R: jig
M: 6/8
K: Dmajor
F/E/|DFA cBA|def geg|fed cAG|FAF GFE|
DFA cBA|def gag|fed cAG|Add d2:|:
A|dfa dfa|dfa afd|ceg ceg|ceg gfe|
f2f gfg|afa gfe|fed cAG|Add d2g|
f(g/a/d) f(g/a/d)|faa agf|e(f/g/c) e(f/g/c)|egg gfe|
f2f gfg|aba gfe|bed cAG|Adc dAF||

